X: 16521
T: Haley's
R: jig
M: 6/8
K: Eminor
|:EB,E GEG|BGB e2f|gfe dcB|ABG FED|
EB,E GEG|BGB e2f|gfe dcB|1 AGF E3:|2 AGF E2||
|:f|gGG G2e|dBG Gef|gfe dcB|ABG FED|
[1 gGG Gge|dBG Gef|gfe dcB|AGF E2:|
[2 EB,E GEG|BGB e2f|gfe dcB|AGF E3||

